X: 165
T: Reavey's
R: Reel
D: Traditional Music On Fiddle, Banjo, And Harp
D: Oisin MacDiarmada, Brian Fitzgerald, and Michael O Ruanaigh
Z: transcribed by Dave Marshall
M: C|
K: Gmaj
GBd^c d=ccA|=F3A dccB|Add^c dgeg|fdcA BdcA|
GBd^c d=ccA|=F3A dBcB|Add^c dgeg|fdcA BGBd||
~g3f fede|fgag fdef|~g2ag fdeg|fdcA BGBd|
~g3f fede|fgag fdef |~g3f ~g2ag|fdcA dccA||
